X: 21227
T: Keel Row, The
R: strathspey
M: 4/4
K: Gmajor
|:d>c|B2 G>B c2 A>c|B2 G>B A>FD>c|
(3BcB G>B (3cdc A>c|B<GA>F G2:|
|:d>c|B<dd>g e2 d>c|B2 G>B A<FD>c|
[1 B<dd>g (3ege d>c|B<GA>F G2:|
[2 (3Bcd d>g e<cd>c|B<G (3AGF G2||

